packages/foundations/assets/icons/functional/images/technology/qr_code_scan_16.svg

<svg width="16" height="16" viewBox="0 0 16 16" fill="none" xmlns="http://www.w3.org/2000/svg">
<g clip-path="url(#clip0_2214_6596)">
<path fill-rule="evenodd" clip-rule="evenodd" d="M13.6 9.59998C14.0416 9.59998 14.4 9.95757 14.4 10.4V12C14.4 13.3232 13.3232 14.4 12 14.4H10.4C9.95837 14.4 9.59998 14.0424 9.59998 13.6C9.59998 13.1576 9.95837 12.8 10.4 12.8H12C12.4408 12.8 12.8 12.4416 12.8 12V10.4C12.8 9.95757 13.1584 9.59998 13.6 9.59998ZM12.8 5.59998V3.99998C12.8 3.55838 12.4408 3.19998 12 3.19998H10.4C9.95837 3.19998 9.59998 2.84238 9.59998 2.39998C9.59998 1.95758 9.95837 1.59998 10.4 1.59998H12C13.3232 1.59998 14.4 2.67678 14.4 3.99998V5.59998C14.4 6.04238 14.0416 6.39998 13.6 6.39998C13.1584 6.39998 12.8 6.04238 12.8 5.59998ZM3.19998 10.4V12C3.19998 12.4416 3.55918 12.8 3.99998 12.8H5.59998C6.04158 12.8 6.39998 13.1576 6.39998 13.6C6.39998 14.0424 6.04158 14.4 5.59998 14.4H3.99998C2.67678 14.4 1.59998 13.3232 1.59998 12V10.4C1.59998 9.95757 1.95838 9.59998 2.39998 9.59998C2.84158 9.59998 3.19998 9.95757 3.19998 10.4ZM2.39998 6.39998C1.95838 6.39998 1.59998 6.04238 1.59998 5.59998V3.99998C1.59998 2.67678 2.67678 1.59998 3.99998 1.59998H5.59998C6.04158 1.59998 6.39998 1.95758 6.39998 2.39998C6.39998 2.84238 6.04158 3.19998 5.59998 3.19998H3.99998C3.55918 3.19998 3.19998 3.55838 3.19998 3.99998V5.59998C3.19998 6.04238 2.84158 6.39998 2.39998 6.39998ZM10.6 9.19998H10.4V8.99998C10.4 8.66878 10.1312 8.39998 9.79998 8.39998H8.99998C8.66878 8.39998 8.39998 8.66878 8.39998 8.99998V9.79998C8.39998 10.1312 8.66878 10.4 8.99998 10.4H9.19998V10.6C9.19998 10.9312 9.46878 11.2 9.79998 11.2H10.6C10.9312 11.2 11.2 10.9312 11.2 10.6V9.79998C11.2 9.46878 10.9312 9.19998 10.6 9.19998ZM7.59998 10.4V9.19998C7.59998 8.75838 7.24158 8.39998 6.79998 8.39998H5.59998C5.15838 8.39998 4.79998 8.75838 4.79998 9.19998V10.4C4.79998 10.8416 5.15838 11.2 5.59998 11.2H6.79998C7.24158 11.2 7.59998 10.8416 7.59998 10.4ZM11.2 6.79998V5.59998C11.2 5.15838 10.8416 4.79998 10.4 4.79998H9.19998C8.75838 4.79998 8.39998 5.15838 8.39998 5.59998V6.79998C8.39998 7.24158 8.75838 7.59998 9.19998 7.59998H10.4C10.8416 7.59998 11.2 7.24158 11.2 6.79998ZM7.59998 6.79998V5.59998C7.59998 5.15838 7.24158 4.79998 6.79998 4.79998H5.59998C5.15838 4.79998 4.79998 5.15838 4.79998 5.59998V6.79998C4.79998 7.24158 5.15838 7.59998 5.59998 7.59998H6.79998C7.24158 7.59998 7.59998 7.24158 7.59998 6.79998Z" fill="#1A1C1F"/>
</g>
<defs>
<clipPath id="clip0_2214_6596">
<rect width="16" height="16" fill="white"/>
</clipPath>
</defs>
</svg>

<svg xmlns="http://www.w3.org/2000/svg" width="16" height="16" fill="none"><g clip-path="url(#a)"><path fill="#1A1C1F" fill-rule="evenodd" d="M13.6 9.6a.8.8 0 0 1 .8.8V12c0 1.323-1.077 2.4-2.4 2.4h-1.6a.8.8 0 1 1 0-1.6H12a.8.8 0 0 0 .8-.8v-1.6a.8.8 0 0 1 .8-.8m-.8-4V4a.8.8 0 0 0-.8-.8h-1.6a.8.8 0 1 1 0-1.6H12c1.323 0 2.4 1.077 2.4 2.4v1.6a.8.8 0 1 1-1.6 0m-9.6 4.8V12c0 .442.36.8.8.8h1.6a.8.8 0 1 1 0 1.6H4A2.403 2.403 0 0 1 1.6 12v-1.6a.8.8 0 1 1 1.6 0m-.8-4a.8.8 0 0 1-.8-.8V4c0-1.323 1.077-2.4 2.4-2.4h1.6a.8.8 0 1 1 0 1.6H4a.8.8 0 0 0-.8.8v1.6a.8.8 0 0 1-.8.8m8.2 2.8h-.2V9a.6.6 0 0 0-.6-.6H9a.6.6 0 0 0-.6.6v.8a.6.6 0 0 0 .6.6h.2v.2a.6.6 0 0 0 .6.6h.8a.6.6 0 0 0 .6-.6v-.8a.6.6 0 0 0-.6-.6m-3 1.2V9.2a.8.8 0 0 0-.8-.8H5.6a.8.8 0 0 0-.8.8v1.2a.8.8 0 0 0 .8.8h1.2a.8.8 0 0 0 .8-.8m3.6-3.6V5.6a.8.8 0 0 0-.8-.8H9.2a.8.8 0 0 0-.8.8v1.2a.8.8 0 0 0 .8.8h1.2a.8.8 0 0 0 .8-.8m-3.6 0V5.6a.8.8 0 0 0-.8-.8H5.6a.8.8 0 0 0-.8.8v1.2a.8.8 0 0 0 .8.8h1.2a.8.8 0 0 0 .8-.8" clip-rule="evenodd"/></g><defs><clipPath id="a"><path fill="#fff" d="M0 0h16v16H0z"/></clipPath></defs></svg>
